Origami/16x16/apps/electron.svg

<svg width="16" height="16" version="1.1" viewBox="0 0 16 16" xmlns="http://www.w3.org/2000/svg">
 <path d="m8 0a8 8 0 0 0 -8 8 8 8 0 0 0 8 8 8 8 0 0 0 8 -8 8 8 0 0 0 -8 -8z" style="fill:#74bfcc"/>
 <path d="m11.501838 7.5159665s1.36337-0.9752525 0.868162-2.4180742c-0.495207-1.4428217-3.8859493-0.0359277-6.1715244 1.5603927-1.6454046 1.149204-3.2043919 3.0282103-3.1754771 4.342956" style="fill:none;stroke-linecap:round;stroke:#3f3f3f"/>
 <path d="m6.5018153 11.512076s0.4699574 0.920986 1.763391 0.987204c1.2934336 0.06622 2.0508697-1.986801 1.8112017-4.7643272-0.1725367-1.9995645-0.9371976-5.0820672-2.0902584-5.7143994" style="fill:none;stroke-linecap:round;stroke:#3f3f3f"/>
 <path d="m6.5149722 4.790993s-2.20309-0.9787859-2.8811169 0.6409979c-0.6780268 1.6197838 1.3115956 4.1285254 4.0022402 4.8582691 1.8781155 0.509374 4.8173245-0.1065 5.3597885-0.3276292" style="fill:none;stroke-linecap:round;stroke:#3f3f3f"/>
 <ellipse cx="8" cy="8" rx=".709" ry=".709" style="fill:#3f3f3f;stroke-width:.58299887;stroke:#3f3f3f"/>
 <path d="M 7.9531177,1.0011364 A 1.0001659,1.0001659 0 0 0 7.1339712,1.4999171 1.0001659,1.0001659 0 0 0 7.4999173,2.866029 1.0001659,1.0001659 0 0 0 8.8660288,2.5000829 1.0001659,1.0001659 0 0 0 8.5000831,1.1339711 1.0001659,1.0001659 0 0 0 7.9531177,1.0011364 Z" style="fill:#3f3f3f"/>
 <path d="m12.976558 8.9998333a1.0001658 1.0001658 0 0 0 -0.476641 0.1341367 1.0001658 1.0001658 0 0 0 -0.365946 1.366112 1.0001658 1.0001658 0 0 0 1.366112 0.365947 1.0001658 1.0001658 0 0 0 0.365945 -1.366113 1.0001658 1.0001658 0 0 0 -0.88947 -0.5000827z" style="fill:#3f3f3f"/>
 <path d="m3 10a0.99999993 0.99999993 0 0 0 -1 1 0.99999993 0.99999993 0 0 0 1 1 0.99999993 0.99999993 0 0 0 1 -1 0.99999993 0.99999993 0 0 0 -1 -1z" style="fill:#3f3f3f"/>
</svg>

<svg xmlns="http://www.w3.org/2000/svg" width="16" height="16" version="1.1" viewBox="0 0 16 16">
 <path style="fill:#74bfcc" d="M 8,0 A 8,8 0 0 0 0,8 8,8 0 0 0 8,16 8,8 0 0 0 16,8 8,8 0 0 0 8,0 Z"/>
 <path style="fill:none;stroke:#3f3f3f;stroke-linecap:round" d="m 11.501838,7.5159665 c 0,0 1.36337,-0.9752525 0.868162,-2.4180742 C 11.874793,3.6550706 8.4840507,5.0619646 6.1984756,6.658285 4.553071,7.807489 2.9940837,9.6864953 3.0229985,11.001241"/>
 <path style="fill:none;stroke:#3f3f3f;stroke-linecap:round" d="m 6.5018153,11.512076 c 0,0 0.4699574,0.920986 1.763391,0.987204 C 9.5586399,12.5655 10.316076,10.512479 10.076408,7.7349528 9.9038713,5.7353883 9.1392104,2.6528856 7.9861496,2.0205534"/>
 <path style="fill:none;stroke:#3f3f3f;stroke-linecap:round" d="m 6.5149722,4.790993 c 0,0 -2.20309,-0.9787859 -2.8811169,0.6409979 C 2.9558285,7.0517747 4.9454509,9.5605163 7.6360955,10.29026 9.514211,10.799634 12.45342,10.18376 12.995884,9.9626308"/>
 <ellipse style="fill:#3f3f3f;stroke:#3f3f3f;stroke-width:0.58299887" cx="8" cy="8" rx=".709" ry=".709"/>
 <path style="fill:#3f3f3f" d="M 7.9531177,1.0011364 A 1.0001659,1.0001659 0 0 0 7.1339712,1.4999171 1.0001659,1.0001659 0 0 0 7.4999173,2.866029 1.0001659,1.0001659 0 0 0 8.8660288,2.5000829 1.0001659,1.0001659 0 0 0 8.5000831,1.1339711 1.0001659,1.0001659 0 0 0 7.9531177,1.0011364 Z"/>
 <path style="fill:#3f3f3f" d="m 12.976558,8.9998333 a 1.0001658,1.0001658 0 0 0 -0.476641,0.1341367 1.0001658,1.0001658 0 0 0 -0.365946,1.366112 1.0001658,1.0001658 0 0 0 1.366112,0.365947 1.0001658,1.0001658 0 0 0 0.365945,-1.366113 1.0001658,1.0001658 0 0 0 -0.88947,-0.5000827 z"/>
 <path style="fill:#3f3f3f" d="M 3,10 A 0.99999993,0.99999993 0 0 0 2,11 0.99999993,0.99999993 0 0 0 3,12 0.99999993,0.99999993 0 0 0 4,11 0.99999993,0.99999993 0 0 0 3,10 Z"/>
</svg>
